icons/ghost-2-line.svg

<svg xmlns="http://www.w3.org/2000/svg" width="24" height="24" fill="none"><g clip-path="url(#a)"><g><path fill="#121212" d="M12 2C15.5 2 18 5 19 8C22 9 23 11.73 23 14L20.225 14.793C20.0162 14.8527 19.8325 14.9788 19.7017 15.1522C19.5709 15.3256 19.5001 15.5368 19.5 15.754V17.25C19.5 17.7141 19.3156 18.1592 18.9874 18.4874C18.6592 18.8156 18.2141 19 17.75 19H17.154C16.8236 18.9999 16.4983 19.0818 16.2073 19.2381C15.9162 19.3945 15.6684 19.6205 15.486 19.896C14.558 21.3 13.396 22 12 22C10.604 22 9.442 21.299 8.514 19.896C8.33162 19.6205 8.08382 19.3945 7.79275 19.2381C7.50168 19.0818 7.17641 18.9999 6.846 19H6.25C5.78587 19 5.34075 18.8156 5.01256 18.4874C4.68437 18.1592 4.5 17.7141 4.5 17.25V15.754C4.4999 15.5368 4.4291 15.3256 4.2983 15.1522C4.1675 14.9788 3.98381 14.8527 3.775 14.793L1 14C1 11.734 2 9 5 8C6 5 8.5 2 12 2ZM12 4C9.89 4 7.935 5.788 6.989 8.371L6.897 8.632L6.581 9.582L5.632 9.897C4.377 10.316 3.565 11.238 3.208 12.457L3.185 12.543L4.325 12.87C4.92193 13.0406 5.45122 13.3923 5.83989 13.8764C6.22855 14.3605 6.45744 14.9533 6.495 15.573L6.5 15.754V17H6.846C7.46698 17 8.07943 17.1446 8.63485 17.4223C9.19028 17.7 9.67341 18.1032 10.046 18.6L10.182 18.792C10.758 19.663 11.316 20 12 20C12.638 20 13.167 19.707 13.703 18.96L13.818 18.792C14.1607 18.2743 14.6193 17.8435 15.1573 17.5337C15.6954 17.2238 16.2982 17.0435 16.918 17.007L17.154 17H17.5V15.754C17.4999 15.133 17.6925 14.5272 18.0513 14.0203C18.41 13.5134 18.9173 13.1304 19.503 12.924L19.676 12.87L20.815 12.543L20.792 12.456C20.455 11.305 19.712 10.419 18.572 9.972L18.368 9.897L17.418 9.581L17.103 8.632C16.195 5.91 14.18 4 12 4ZM12 12C12.828 12 13.5 13.12 13.5 14.5C13.5 15.88 12.828 17 12 17C11.172 17 10.5 15.88 10.5 14.5C10.5 13.12 11.172 12 12 12ZM9.5 8C9.89782 8 10.2794 8.15804 10.5607 8.43934C10.842 8.72064 11 9.10218 11 9.5C11 9.89782 10.842 10.2794 10.5607 10.5607C10.2794 10.842 9.89782 11 9.5 11C9.10218 11 8.72064 10.842 8.43934 10.5607C8.15804 10.2794 8 9.89782 8 9.5C8 9.10218 8.15804 8.72064 8.43934 8.43934C8.72064 8.15804 9.10218 8 9.5 8ZM14.5 8C14.8978 8 15.2794 8.15804 15.5607 8.43934C15.842 8.72064 16 9.10218 16 9.5C16 9.89782 15.842 10.2794 15.5607 10.5607C15.2794 10.842 14.8978 11 14.5 11C14.1022 11 13.7206 10.842 13.4393 10.5607C13.158 10.2794 13 9.89782 13 9.5C13 9.10218 13.158 8.72064 13.4393 8.43934C13.7206 8.15804 14.1022 8 14.5 8Z"/></g></g><defs><clipPath id="a"><rect width="24" height="24" fill="white"/></clipPath></defs></svg>

<svg width="24" height="24" fill="none" xmlns="http://www.w3.org/2000/svg"><g clip-path="url(#a)"><path d="M12 2c3.5 0 6 3 7 6 3 1 4 3.73 4 6l-2.775.793a1 1 0 0 0-.725.961v1.496A1.75 1.75 0 0 1 17.75 19h-.596a2 2 0 0 0-1.668.896C14.558 21.3 13.396 22 12 22c-1.396 0-2.558-.701-3.486-2.104A2 2 0 0 0 6.846 19H6.25a1.75 1.75 0 0 1-1.75-1.75v-1.496a1 1 0 0 0-.725-.961L1 14c0-2.266 1-5 4-6 1-3 3.5-6 7-6Zm0 2C9.89 4 7.935 5.788 6.989 8.371l-.092.261-.316.95-.949.315c-1.255.419-2.067 1.341-2.424 2.56l-.023.086 1.14.327a3 3 0 0 1 2.17 2.703l.005.181V17h.346a4 4 0 0 1 3.2 1.6l.136.192C10.758 19.663 11.316 20 12 20c.638 0 1.167-.293 1.703-1.04l.115-.168a4 4 0 0 1 3.1-1.785l.236-.007h.346v-1.246a3 3 0 0 1 2.003-2.83l.173-.054 1.139-.327-.023-.087c-.337-1.151-1.08-2.037-2.22-2.484l-.204-.075-.95-.316-.315-.949C16.195 5.91 14.18 4 12 4Zm0 8c.828 0 1.5 1.12 1.5 2.5S12.828 17 12 17s-1.5-1.12-1.5-2.5.672-2.5 1.5-2.5ZM9.5 8a1.5 1.5 0 1 1 0 3 1.5 1.5 0 0 1 0-3Zm5 0a1.5 1.5 0 1 1 0 3 1.5 1.5 0 0 1 0-3Z" /></g><defs><clipPath id="a"><path fill="#fff" d="M0 0h24v24H0z"/></clipPath></defs></svg>
